X: 1
T: Lee Mills
C: Marshall
R: strathspey
B: RSCDS __-5
Z: 1997 by John Chambers <jc:trillian.mit.edu>
M: C
L: 1/8
%%stretchlast 0
K: A
   e/ \
| "A"c>A C>A "D"D>A "E7"E>B | "A"c>A [EC]>A "E7"B<E E>e \
| "A"d/c/B/A/ E>A "D"F>A "Bm"D>d | "E7"c<e B>e "A"c<A A> :|
   e \
| "A"c>e a>e "D"f>e "A"a>c | "Bm"d>B "A"c>A "E7"B<E E>e \
| "A"c>e a>e "D"f>a "A"e>c | "Bm"d>B "E7"e>g "A"a<A A> ||
   d \
| "A"c>e a>e "D"f<a "A"a>c | "Bm"d>b "A"c>a "E7"B<E E>e \
| "A"d/c/B/A/ E>A "D"F>A "Bm"D>d | "E7"c<a B>e "A"c<A A2 |]
